Resources/IV_VRML/ARROW1.svg

<?xml version="1.0" encoding="UTF-8" standalone="no"?>
<svg
   xmlns:dc="http://purl.org/dc/elements/1.1/"
   xmlns:cc="http://creativecommons.org/ns#"
   xmlns:rdf="http://www.w3.org/1999/02/22-rdf-syntax-ns#"
   xmlns:svg="http://www.w3.org/2000/svg"
   xmlns="http://www.w3.org/2000/svg"
   xmlns:sodipodi="http://sodipodi.sourceforge.net/DTD/sodipodi-0.dtd"
   xmlns:inkscape="http://www.inkscape.org/namespaces/inkscape"
   width="35.380207mm"
   height="33.454819mm"
   viewBox="0 0 35.380207 33.454819"
   version="1.1"
   id="svg8"
   sodipodi:docname="ARROW1.svg"
   inkscape:version="1.0.2-2 (e86c870879, 2021-01-15)">
  <sodipodi:namedview
     pagecolor="#ffffff"
     bordercolor="#666666"
     borderopacity="1"
     objecttolerance="10"
     gridtolerance="10"
     guidetolerance="10"
     inkscape:pageopacity="0"
     inkscape:pageshadow="2"
     inkscape:window-width="1920"
     inkscape:window-height="1001"
     id="namedview11"
     showgrid="false"
     fit-margin-top="0"
     fit-margin-left="0"
     fit-margin-right="0"
     fit-margin-bottom="0"
     inkscape:zoom="0.73940797"
     inkscape:cx="83.85914"
     inkscape:cy="249.1012"
     inkscape:window-x="-9"
     inkscape:window-y="-9"
     inkscape:window-maximized="1"
     inkscape:current-layer="svg8" />
  <defs
     id="defs2">
    <pattern
       id="EMFhbasepattern"
       patternUnits="userSpaceOnUse"
       width="6"
       height="6"
       x="0"
       y="0" />
    <pattern
       id="EMFhbasepattern-3"
       patternUnits="userSpaceOnUse"
       width="6"
       height="6"
       x="0"
       y="0" />
  </defs>
  <metadata
     id="metadata5">
    <rdf:RDF>
      <cc:Work
         rdf:about="">
        <dc:format>image/svg+xml</dc:format>
        <dc:type
           rdf:resource="http://purl.org/dc/dcmitype/StillImage" />
        <dc:title></dc:title>
      </cc:Work>
    </rdf:RDF>
  </metadata>
  <g
     id="layer1"
     transform="translate(-82.81227,-53.965468)">
    <g
       aria-label=" "
       id="text959"
       style="font-style:normal;font-variant:normal;font-weight:400;font-size:4.23333px;line-height:125%;font-family:'Times New Roman';text-align:start;letter-spacing:0px;word-spacing:0px;text-anchor:start;fill:#000000;fill-opacity:1;stroke:none;stroke-width:0.264583" />
  </g>
  <g
     id="layer2"
     transform="translate(-82.81227,-53.965468)">
    <path
       id="path1110"
       style="fill:#ffe6d5;stroke:#000000;stroke-width:0.999999px;stroke-linecap:butt;stroke-linejoin:miter;stroke-opacity:1"
       d="m 313.68945,204.66602 c -0.0247,0.0134 -0.0571,0.0578 -0.0996,0.14453 0.007,0.16174 0.0173,0.26969 0.0293,0.34375 0.01,-0.0324 0.009,-0.0724 0.0332,-0.0937 v 0.1894 c 0.0755,0.10022 0.16648,-0.65441 0.0371,-0.58398 z m -0.0371,0.58398 c -0.0113,-0.0151 -0.0234,-0.0353 -0.0332,-0.0957 -0.0264,0.0886 -0.0189,0.2022 0.0332,0.34765 z m 0,0.25195 v 61.6836 61.61718 c 0.003,0.0156 0.005,0.034 0.008,0.0527 1.61497,-4.37005 40.8581,-35.40752 78.27929,-33.38477 l 2.01953,20.70703 52.02344,-48.99218 -52.02344,-48.99219 -2.01953,20.70703 c -37.455,2.02459 -76.73873,-29.0727 -78.28711,-33.39844 z m 0.008,123.35352 c -10e-4,0.004 -0.006,0.01 -0.008,0.0137 v 0.35938 c 0.0219,-0.1125 0.0254,-0.2368 0.008,-0.37305 z m -0.008,0.37305 c -0.003,0.0175 -0.003,0.0443 -0.008,0.0566 0.005,0.007 0.001,0.0197 0.008,0.0254 z m -0.008,0.0566 c -0.0707,-0.0849 -0.0582,-0.23163 0.008,-0.41602 v -0.0664 c -0.0266,-0.1312 -0.0697,-0.17778 -0.15039,0.18555 0.0709,0.36403 0.11338,0.37973 0.14258,0.29688 z m 4.00586,-114.24414 c 4.99688,4.00786 10.35511,7.55346 15.86914,10.80664 18.64846,10.98607 40.14901,18.59385 62.06055,16.94336 0.52089,-5.36425 1.04487,-10.72957 1.5664,-16.09375 l 43.00586,40.49023 -43.00586,40.49023 c -0.5221,-5.36166 -1.04112,-10.72458 -1.5664,-16.08593 -8.57431,-0.59589 -17.22727,0.0599 -25.60547,1.98242 -19.07017,4.54912 -36.99385,13.65994 -52.32422,25.83203 V 267.1875 Z"
       transform="scale(0.26458333)" />
  </g>
</svg>

<?xml version="1.0" encoding="UTF-8" standalone="no"?>
<svg
   xmlns:dc="http://purl.org/dc/elements/1.1/"
   xmlns:cc="http://creativecommons.org/ns#"
   xmlns:rdf="http://www.w3.org/1999/02/22-rdf-syntax-ns#"
   xmlns:svg="http://www.w3.org/2000/svg"
   xmlns="http://www.w3.org/2000/svg"
   width="210mm"
   height="297mm"
   viewBox="0 0 210 297"
   version="1.1"
   id="svg8">
  <defs
     id="defs2">
    <pattern
       id="EMFhbasepattern"
       patternUnits="userSpaceOnUse"
       width="6"
       height="6"
       x="0"
       y="0" />
    <pattern
       id="EMFhbasepattern-3"
       patternUnits="userSpaceOnUse"
       width="6"
       height="6"
       x="0"
       y="0" />
  </defs>
  <metadata
     id="metadata5">
    <rdf:RDF>
      <cc:Work
         rdf:about="">
        <dc:format>image/svg+xml</dc:format>
        <dc:type
           rdf:resource="http://purl.org/dc/dcmitype/StillImage" />
        <dc:title></dc:title>
      </cc:Work>
    </rdf:RDF>
  </metadata>
  <g
     id="layer1">
    <g
       aria-label=" "
       id="text959"
       style="font-style:normal;font-variant:normal;font-weight:400;font-size:4.23333px;line-height:125%;font-family:'Times New Roman';text-align:start;letter-spacing:0px;word-spacing:0px;text-anchor:start;fill:#000000;fill-opacity:1;stroke:none;stroke-width:0.264583" />
  </g>
  <g
     id="layer2">
    <path
       id="path1110"
       style="fill:#ffe6d5;stroke:#000000;stroke-width:0.999999px;stroke-linecap:butt;stroke-linejoin:miter;stroke-opacity:1"
       d="M 313.68945 204.66602 C 313.66479 204.67944 313.63231 204.72385 313.58984 204.81055 C 313.59671 204.97229 313.60717 205.08024 313.61914 205.1543 C 313.62879 205.12195 313.62776 205.0819 313.65234 205.06055 L 313.65234 205.25 C 313.72785 205.35022 313.81882 204.59559 313.68945 204.66602 z M 313.65234 205.25 C 313.64099 205.23493 313.6289 205.21469 313.61914 205.1543 C 313.59272 205.24288 313.60028 205.3565 313.65234 205.50195 L 313.65234 205.25 z M 313.65234 205.50195 L 313.65234 267.18555 L 313.65234 328.80273 C 313.65551 328.81838 313.65774 328.83676 313.66016 328.85547 C 315.27513 324.48542 354.51826 293.44795 391.93945 295.4707 L 393.95898 316.17773 L 445.98242 267.18555 L 393.95898 218.19336 L 391.93945 238.90039 C 354.48445 240.92498 315.20072 209.82769 313.65234 205.50195 z M 313.66016 328.85547 C 313.6587 328.85941 313.65374 328.86524 313.65234 328.86914 L 313.65234 329.22852 C 313.67424 329.11602 313.67774 328.99172 313.66016 328.85547 z M 313.65234 329.22852 C 313.64893 329.24606 313.64889 329.27279 313.64453 329.28516 C 313.64997 329.29169 313.64578 329.30485 313.65234 329.31055 L 313.65234 329.22852 z M 313.64453 329.28516 C 313.57384 329.20025 313.58633 329.05353 313.65234 328.86914 L 313.65234 328.80273 C 313.62576 328.67153 313.58262 328.62495 313.50195 328.98828 C 313.57283 329.35231 313.61533 329.36801 313.64453 329.28516 z M 317.65039 215.04102 C 322.64727 219.04888 328.0055 222.59448 333.51953 225.84766 C 352.16799 236.83373 373.66854 244.44151 395.58008 242.79102 C 396.10097 237.42677 396.62495 232.06145 397.14648 226.69727 L 440.15234 267.1875 L 397.14648 307.67773 C 396.62438 302.31607 396.10536 296.95315 395.58008 291.5918 C 387.00577 290.99591 378.35281 291.65172 369.97461 293.57422 C 350.90444 298.12334 332.98076 307.23416 317.65039 319.40625 L 317.65039 267.1875 L 317.65039 215.04102 z "
       transform="scale(0.26458333)" />
  </g>
</svg>
